dist/svg/u1F42B.svg

<?xml version="1.0" encoding="UTF-8"?><svg id="Layer_1" xmlns="http://www.w3.org/2000/svg" viewBox="0 0 40 40"><g><path d="M30.03331,6.81638l-2.07078-.47899s-.94086,1.66456,1.40859,2.17136l.66219-1.69237Z" style="fill:#ff9138;"/><path d="M11.57308,15.08043l-.49105,2.81817c-.64348,3.69296-.37246,12.55163,.78937,16.11565l.1888,.76731s1.65133,.30183,1.20477,1.69875h-2.18758c-.24514,0-.46537-.14981-.55542-.37781l-1.86243-10.049c-.53632-1.35791-.8454-2.79486-.91484-4.25319l-.25533-5.3619,4.08372-1.35798Z" style="fill:#ec6700;"/><path d="M17.62841,35.92222c-.00408,.31908,.25868,.57778,.57778,.57778l2.00547-.01969c.30789,0,.52571-.30276,.42083-.59223-.18394-.50765-.49196-1.21419-.88588-1.58659-.22941-.21688-.36817-.51176-.29423-.81868,.30715-1.27493,2.19676-10.05143,3.73701-11.26962l-3.6487-5.31504s-1.79004,9.45373-1.91229,19.02407Z" style="fill:#ec6700;"/><path d="M37.98207,8.62754c-.30111,.55589-.88252,.90219-1.51473,.90219h-.98449s.47465,3.01803-1.3798,5.9616c-1.43845,2.28326-4.32918,2.29954-6.69393,2.48046-1.08492,.083-1.97031,.89789-2.13549,1.97337l-2.08654,13.58504c-.06495,.22174-.09485,.44923,.08118,.5989,.51184,.4352,1.56241,1.23927,1.73396,1.71196,.11323,.31201-.12004,.63926-.45196,.63926h-3.11929l-.00002-15.59601c0-.52902-.47373-.94256-.99497-.85219-5.35782,.92896-9.41049-1.92101-9.41049-1.92101-1.6847,2.99028-3.29679,4.53309-4.17986,5.73995-.57318,.78335,.94925,10.77771,.94925,10.77771,0,0,1.38057,.2806,1.37256,1.85155h-3.32262l-1.36983-11.13453c-.08642-.38294-.083-.78069,.00997-1.1621l1.14849-4.71162c.1001-.41065,.08803-.84227-.0121-1.25292-1.12358-4.60781,.61259-5.57247,1.43033-6.67219,.85363-1.14799,2.38429-5.71052,3.14962-7.12343,.76533-1.41291,2.29598-.97138,2.973-.21819,.53319,.59318,1.70539,3.07119,2.17938,4.0973,.09643,.20876,.37261,.24652,.51995,.06997,.74161-.88864,2.56837-3.07086,3.01119-3.53698,.55928-.58871,1.58953-1.05968,2.53147,0,.6385,.71831,1.9739,4.13526,3.05269,6.12313,.49162,.90591,1.48756,1.32701,2.39991,.89849h0c.54257-.25485,.80965-.70525,1.06759-1.32957,.40475-.97967,.76584-2.72942,2.06669-3.71807,1.97111-1.49804,4.05402-.34182,4.05402-.34182l2.63449-.29916c.19781-.05605,.41042-.01763,.57611,.1041l.85944,.63863c.33075,.24578,.42719,.69914,.2251,1.05825l-.37025,.65793Z" style="fill:#ff9000;"/><path d="M6.24804,12.62556s-3.78546,2.96622-4.7056,10.16221c0,0,2.75468-3.47359,4.7056-10.16221Z" style="fill:#ff9138;"/><circle cx="33.51906" cy="8.00195" r=".66062"/></g><rect width="40" height="40" style="fill:none;"/></svg>

<svg id="Layer_1" data-name="Layer 1" xmlns="http://www.w3.org/2000/svg" viewBox="0 0 40 40"><defs><style>.cls-1{fill:#ff9138;}.cls-2{fill:#ec6700;}.cls-3{fill:#ff9000;}.cls-4{fill:none;}</style></defs><path class="cls-1" d="M30.033,6.816l-2.07-.479S27.022,8,29.371,8.509Z"/><path class="cls-2" d="M11.573,15.08,11.082,17.9c-.643,3.693-.372,12.551.789,16.115l.189.768s1.652.3,1.205,1.7H11.077a.6.6,0,0,1-.555-.378L8.66,26.053A13.26,13.26,0,0,1,7.745,21.8l-.256-5.362Z"/><path class="cls-2" d="M17.628,35.922a.576.576,0,0,0,.578.578l2.006-.02a.443.443,0,0,0,.42-.592,4.449,4.449,0,0,0-.885-1.587.855.855,0,0,1-.295-.818c.308-1.275,2.2-10.052,3.737-11.27L19.541,16.9A125.714,125.714,0,0,0,17.628,35.922Z"/><path class="cls-3" d="M37.982,8.628a1.724,1.724,0,0,1-1.515.9h-.984a9.439,9.439,0,0,1-1.38,5.961c-1.438,2.284-4.329,2.3-6.694,2.481a2.336,2.336,0,0,0-2.135,1.973L23.187,33.53c-.065.222-.1.449.081.6.512.435,1.563,1.239,1.734,1.712a.478.478,0,0,1-.452.639H21.431v-15.6a.859.859,0,0,0-1-.852,13.592,13.592,0,0,1-9.41-1.921,40.252,40.252,0,0,1-4.18,5.74c-.574.783.949,10.778.949,10.778A1.8,1.8,0,0,1,9.167,36.48H5.845L4.475,25.346a2.548,2.548,0,0,1,.01-1.162l1.148-4.712a2.642,2.642,0,0,0-.012-1.253c-1.123-4.608.613-5.572,1.431-6.672C7.905,10.4,9.436,5.836,10.2,4.424a1.776,1.776,0,0,1,2.973-.219,28.071,28.071,0,0,1,2.18,4.1.309.309,0,0,0,.52.07c.741-.889,2.568-3.071,3.011-3.537a1.594,1.594,0,0,1,2.531,0c.639.718,1.974,4.135,3.053,6.123a1.828,1.828,0,0,0,2.4.9h0a2.217,2.217,0,0,0,1.067-1.329C28.341,9.548,28.7,7.8,30,6.81a3.87,3.87,0,0,1,4.054-.342l2.635-.3a.666.666,0,0,1,.576.1l.859.638a.819.819,0,0,1,.225,1.059Z"/><path class="cls-1" d="M6.248,12.626S2.463,15.592,1.542,22.788A31.938,31.938,0,0,0,6.248,12.626Z"/><circle cx="33.519" cy="8.002" r="0.661"/><rect class="cls-4" width="40" height="40"/></svg>
